; generated by Slic3r 1.2.9 on 2018-06-12 at 17:52:10

; external perimeters extrusion width = 0.50mm
; perimeters extrusion width = 0.72mm
; infill extrusion width = 0.72mm
; solid infill extrusion width = 0.72mm
; top infill extrusion width = 0.72mm

M107
M104 S200 ; set temperature
G28 ; home all axes
G1 Z5 F5000 ; lift nozzle

M109 S200 ; wait for temperature to be reached
G21 ; set units to millimeters
G90 ; use absolute coordinates
M82 ; use absolute distances for extrusion
G92 E0
G1 Z0.350 F7800.000
G1 E-2.00000 F2400.00000
G92 E0
G1 X71.876 Y74.110 F7800.000
G1 E2.00000 F2400.00000
G1 X73.266 Y72.803 E2.05903 F1800.000
G1 X74.723 Y71.571 E2.11806
G1 X76.242 Y70.417 E2.17709
G1 X77.529 Y69.533 E2.22540
G1 X79.151 Y68.528 E2.28443
G1 X80.823 Y67.610 E2.34346
G1 X82.541 Y66.781 E2.40248
G1 X84.300 Y66.042 E2.46151
G1 X86.095 Y65.397 E2.52055
G1 X87.888 Y64.856 E2.57847
G1 X90.114 Y64.320 E2.64934
G1 X91.992 Y63.981 E2.70837
G1 X93.884 Y63.741 E2.76739
G1 X95.787 Y63.600 E2.82642
G1 X97.694 Y63.559 E2.88546
G1 X99.255 Y63.600 E2.93376 F1800.000
G1 X101.158 Y63.741 E2.99279
G1 X103.050 Y63.981 E3.05181
G1 X104.856 Y64.306 E3.10860
G1 X107.120 Y64.846 E3.18060
G1 X108.946 Y65.397 E3.23963
G1 X110.418 Y65.918 E3.28794
G1 X112.501 Y66.781 E3.35770
G1 X114.219 Y67.610 E3.41673
G1 X115.891 Y68.528 E3.47574
G1 X117.222 Y69.344 E3.52406
G1 X118.800 Y70.417 E3.58309
G1 X120.319 Y71.571 E3.64212
G1 X121.776 Y72.803 E3.70115
G1 X123.166 Y74.110 E3.76018
G1 X124.718 Y75.745 E3.82994
G1 X125.731 Y76.933 E3.87824
G1 X126.900 Y78.440 E3.93727
G1 X128.177 Y80.299 E4.00703
G1 X129.166 Y81.930 E4.06605
G1 X129.923 Y83.324 E4.11515
G1 X138.083 Y98.491 E4.64802
G1 X138.390 Y99.138 E4.67018
G1 X138.533 Y99.511 E4.68254
G1 X138.916 Y101.909 E4.75770
G1 X138.914 Y101.995 E4.76037
G1 X138.863 Y102.761 E4.78412
G1 X138.289 Y104.982 E4.85508
G1 X137.700 Y106.020 E4.89201
G1 X127.086 Y121.305 E5.46780
G1 X125.950 Y122.798 E5.52585
G1 X124.717 Y124.255 E5.58488
G1 X123.166 Y125.890 E5.65464
G1 X121.775 Y127.197 E5.71367
G1 X120.588 Y128.210 E5.76197
G1 X119.080 Y129.379 E5.82100
G1 X117.513 Y130.467 E5.88003
G1 X115.591 Y131.645 E5.94979
G1 X114.219 Y132.390 E5.99810
G1 X112.501 Y133.219 E6.05712
G1 X110.742 Y133.958 E6.11615
G1 X108.617 Y134.711 E6.18591
G1 X107.120 Y135.154 E6.23421
G1 X105.267 Y135.608 E6.29325
G1 X103.050 Y136.019 E6.36300
G1 X101.158 Y136.259 E6.42202
G1 X99.255 Y136.400 E6.48105
G1 X97.694 Y136.441 E6.52936
G1 X95.787 Y136.400 E6.58840
G1 X93.884 Y136.259 E6.64743
G1 X91.992 Y136.019 E6.70645
G1 X89.775 Y135.608 E6.77622
G1 X88.257 Y135.244 E6.82452
G1 X86.425 Y134.711 E6.88355
G1 X84.300 Y133.958 E6.95330
G1 X82.541 Y133.219 E7.01234
G1 X81.132 Y132.547 E7.06064
G1 X79.451 Y131.645 E7.11967
G1 X77.882 Y130.694 E7.17643
G1 X75.961 Y129.379 E7.24845
G1 X74.723 Y128.429 E7.29676
G1 X73.266 Y127.197 E7.35579
G1 X71.631 Y125.645 E7.42554
G1 X70.556 Y124.512 E7.47384
G1 X69.310 Y123.067 E7.53287
G1 X68.142 Y121.560 E7.59190
G1 X67.054 Y119.992 E7.65094
G1 X66.049 Y118.370 E7.70997
G1 X65.166 Y116.762 E7.76673
G1 X64.160 Y114.663 E7.83875
G1 X63.563 Y113.221 E7.88705
G1 X62.917 Y111.426 E7.94609
G1 X62.277 Y109.264 E8.01584
G1 X61.913 Y107.746 E8.06415
G1 X61.556 Y105.872 E8.12318
G1 X61.298 Y103.981 E8.18221
G1 X61.139 Y102.080 E8.24123
G1 X61.080 Y99.826 E8.31100
G1 X61.121 Y98.266 E8.35930
G1 X61.262 Y96.363 E8.41833
G1 X61.556 Y94.128 E8.48808
G1 X61.841 Y92.593 E8.53640
G1 X62.277 Y90.736 E8.59542
G1 X62.810 Y88.904 E8.65445
G1 X63.439 Y87.103 E8.71348
G1 X64.301 Y85.020 E8.78324
G1 X65.131 Y83.302 E8.84227
G1 X66.049 Y81.630 E8.90129
G1 X66.865 Y80.298 E8.94961
G1 X67.938 Y78.721 E9.00863
G1 X69.310 Y76.933 E9.07838
G1 X70.556 Y75.488 E9.13742
G1 X71.823 Y74.163 E9.19413
G1 E7.19413 F2400.00000
G92 E0
G1 X105.486 Y108.428 F7800.000
G1 E2.00000 F2400.00000
G1 X104.821 Y109.015 E2.02743 F1800.000
G1 X104.339 Y109.385 E2.04622
G1 X103.839 Y109.729 E2.06502
G1 X103.321 Y110.046 E2.08381
G1 X102.787 Y110.336 E2.10260
G1 X102.239 Y110.597 E2.12139
G1 X101.678 Y110.830 E2.14018
G1 X101.106 Y111.033 E2.15897
G1 X100.523 Y111.205 E2.17776
G1 X99.933 Y111.347 E2.19655
G1 X99.336 Y111.458 E2.21535
G1 X98.733 Y111.537 E2.23414
G1 X98.128 Y111.584 E2.25293
G1 X97.521 Y111.600 E2.27172
G1 X96.914 Y111.584 E2.29051
G1 X96.308 Y111.537 E2.30930
G1 X95.706 Y111.458 E2.32809
G1 X95.109 Y111.347 E2.34688
G1 X94.519 Y111.205 E2.36568
G1 X93.936 Y111.033 E2.38447
G1 X93.364 Y110.830 E2.40326
G1 X92.803 Y110.597 E2.42205
G1 X92.254 Y110.336 E2.44084
G1 X91.721 Y110.046 E2.45963
G1 X91.203 Y109.729 E2.47842
G1 X90.702 Y109.385 E2.49722
G1 X90.221 Y109.015 E2.51601
G1 X89.759 Y108.621 E2.53480
G1 X89.318 Y108.203 E2.55359
G1 X88.900 Y107.762 E2.57238
G1 X88.506 Y107.300 E2.59117
G1 X88.136 Y106.819 E2.60996
G1 X87.792 Y106.318 E2.62876
G1 X87.475 Y105.800 E2.64755
G1 X87.185 Y105.266 E2.66634
G1 X86.923 Y104.716 E2.68520
G1 X86.691 Y104.157 E2.70392
G1 X86.488 Y103.585 E2.72271
G1 X86.316 Y103.002 E2.74150
G1 X86.174 Y102.412 E2.76029
G1 X86.063 Y101.815 E2.77909
G1 X85.984 Y101.213 E2.79788
G1 X85.936 Y100.607 E2.81667
G1 X85.921 Y100.000 E2.83546
G1 X85.936 Y99.393 E2.85425
G1 X85.984 Y98.787 E2.87304
G1 X86.063 Y98.185 E2.89183
G1 X86.174 Y97.588 E2.91062
G1 X86.316 Y96.998 E2.92942
G1 X86.488 Y96.415 E2.94821
G1 X86.691 Y95.843 E2.96700
G1 X86.923 Y95.282 E2.98579
G1 X87.185 Y94.734 E3.00458
G1 X87.475 Y94.200 E3.02337
G1 X87.792 Y93.682 E3.04216
G1 X88.136 Y93.181 E3.06096
G1 X88.506 Y92.700 E3.07975
G1 X88.900 Y92.238 E3.09854
G1 X89.318 Y91.797 E3.11733
G1 X89.759 Y91.379 E3.13612
G1 X90.221 Y90.985 E3.15491
G1 X90.702 Y90.615 E3.17370
G1 X91.203 Y90.271 E3.19250
G1 X91.721 Y89.954 E3.21129
G1 X92.254 Y89.664 E3.23008
G1 X92.803 Y89.403 E3.24887
G1 X93.364 Y89.170 E3.26766
G1 X93.936 Y88.967 E3.28645
G1 X94.519 Y88.795 E3.30524
G1 X95.109 Y88.653 E3.32404
G1 X95.706 Y88.542 E3.34283
G1 X96.308 Y88.463 E3.36162
G1 X96.914 Y88.416 E3.38041
G1 X97.519 Y88.400 E3.39913 F1800.000
G1 X98.128 Y88.416 E3.41799
G1 X98.733 Y88.463 E3.43678
G1 X99.336 Y88.542 E3.45557
G1 X99.933 Y88.653 E3.47437
G1 X100.523 Y88.795 E3.49316
G1 X101.106 Y88.967 E3.51195
G1 X101.678 Y89.170 E3.53074
G1 X102.239 Y89.403 E3.54953
G1 X102.787 Y89.664 E3.56832
G1 X103.321 Y89.954 E3.58711
G1 X103.839 Y90.271 E3.60590
G1 X104.339 Y90.615 E3.62470
G1 X104.821 Y90.985 E3.64349
G1 X105.283 Y91.379 E3.66228
G1 X105.724 Y91.797 E3.68107
G1 X106.142 Y92.238 E3.69986
G1 X106.536 Y92.700 E3.71865
G1 X106.906 Y93.181 E3.73744
G1 X107.250 Y93.682 E3.75624
G1 X107.567 Y94.200 E3.77503
G1 X107.857 Y94.734 E3.79382
G1 X108.118 Y95.282 E3.81261
G1 X108.351 Y95.843 E3.83140
G1 X108.553 Y96.415 E3.85019
G1 X108.726 Y96.998 E3.86898
G1 X108.868 Y97.588 E3.88778
G1 X108.978 Y98.185 E3.90657
G1 X109.058 Y98.787 E3.92536
G1 X109.105 Y99.393 E3.94415
G1 X109.121 Y100.000 E3.96294
G1 X109.105 Y100.607 E3.98173
G1 X109.058 Y101.213 E4.00052
G1 X108.978 Y101.815 E4.01931
G1 X108.868 Y102.412 E4.03811
G1 X108.726 Y103.002 E4.05690
G1 X108.553 Y103.585 E4.07569
G1 X108.351 Y104.157 E4.09448
G1 X108.118 Y104.718 E4.11327
G1 X107.857 Y105.266 E4.13206
G1 X107.567 Y105.800 E4.15085
G1 X107.250 Y106.318 E4.16965
G1 X106.906 Y106.819 E4.18844
G1 X106.536 Y107.300 E4.20723
G1 X106.142 Y107.762 E4.22602
G1 X105.540 Y108.377 E4.25263
G1 X105.056 Y107.975 F7800.000
G1 X104.428 Y108.529 E4.27854 F1800.000
G1 X103.972 Y108.879 E4.29632
G1 X103.498 Y109.205 E4.31410
G1 X103.009 Y109.505 E4.33188
G1 X102.504 Y109.779 E4.34965
G1 X101.985 Y110.026 E4.36743
G1 X101.454 Y110.246 E4.38521
G1 X100.912 Y110.438 E4.40299
G1 X100.362 Y110.601 E4.42077
G1 X99.803 Y110.735 E4.43855
G1 X99.238 Y110.840 E4.45633
G1 X98.668 Y110.915 E4.47411
G1 X98.095 Y110.960 E4.49188
G1 X97.521 Y110.975 E4.50966
G1 X96.947 Y110.960 E4.52744
G1 X96.374 Y110.915 E4.54522
G1 X95.804 Y110.840 E4.56300
G1 X95.239 Y110.735 E4.58078
G1 X94.680 Y110.601 E4.59856
G1 X94.129 Y110.438 E4.61634
G1 X93.588 Y110.246 E4.63411
G1 X93.057 Y110.026 E4.65189
G1 X92.538 Y109.779 E4.66967
G1 X92.033 Y109.505 E4.68745
G1 X91.543 Y109.205 E4.70523
G1 X91.070 Y108.879 E4.72301
G1 X90.614 Y108.529 E4.74079
G1 X90.177 Y108.156 E4.75856
G1 X89.760 Y107.761 E4.77634
G1 X89.365 Y107.344 E4.79412
G1 X88.992 Y106.907 E4.81190
G1 X88.642 Y106.451 E4.82968
G1 X88.316 Y105.978 E4.84746
G1 X88.016 Y105.488 E4.86524
G1 X87.742 Y104.983 E4.88302
G1 X87.494 Y104.462 E4.90086
G1 X87.275 Y103.933 E4.91857
G1 X87.083 Y103.392 E4.93635
G1 X86.920 Y102.841 E4.95413
G1 X86.786 Y102.282 E4.97191
G1 X86.681 Y101.717 E4.98969
G1 X86.606 Y101.147 E5.00747
G1 X86.561 Y100.574 E5.02525
G1 X86.546 Y100.000 E5.04302
G1 X86.561 Y99.426 E5.06080
G1 X86.606 Y98.853 E5.07858
G1 X86.681 Y98.283 E5.09636
G1 X86.786 Y97.718 E5.11414
G1 X86.920 Y97.159 E5.13192
G1 X87.083 Y96.608 E5.14970
G1 X87.275 Y96.067 E5.16748
G1 X87.495 Y95.536 E5.18525
G1 X87.742 Y95.017 E5.20303
G1 X88.016 Y94.512 E5.22081
G1 X88.316 Y94.022 E5.23859
G1 X88.642 Y93.549 E5.25637
G1 X88.992 Y93.093 E5.27415
G1 X89.365 Y92.656 E5.29193
G1 X89.760 Y92.239 E5.30971
G1 X90.177 Y91.844 E5.32748
G1 X90.614 Y91.471 E5.34526
G1 X91.070 Y91.121 E5.36304
G1 X91.543 Y90.795 E5.38082
G1 X92.033 Y90.495 E5.39860
G1 X92.538 Y90.221 E5.41638
G1 X93.057 Y89.974 E5.43416
G1 X93.588 Y89.754 E5.45194
G1 X94.129 Y89.562 E5.46971
G1 X94.680 Y89.399 E5.48749
G1 X95.239 Y89.265 E5.50527
G1 X95.804 Y89.160 E5.52305
G1 X96.374 Y89.085 E5.54083
G1 X96.947 Y89.040 E5.55861
G1 X97.519 Y89.025 E5.57632 F1800.000
G1 X98.095 Y89.040 E5.59416
G1 X98.668 Y89.085 E5.61194
G1 X99.238 Y89.160 E5.62972
G1 X99.803 Y89.265 E5.64750
G1 X100.361 Y89.399 E5.66528
G1 X100.912 Y89.562 E5.68306
G1 X101.454 Y89.754 E5.70084
G1 X101.985 Y89.974 E5.71862
G1 X102.504 Y90.221 E5.73640
G1 X103.009 Y90.495 E5.75417
G1 X103.498 Y90.795 E5.77195
G1 X103.972 Y91.121 E5.78973
G1 X104.428 Y91.471 E5.80751
G1 X104.865 Y91.844 E5.82529
G1 X105.282 Y92.239 E5.84307
G1 X105.677 Y92.656 E5.86085
G1 X106.050 Y93.093 E5.87863
G1 X106.400 Y93.549 E5.89640
G1 X106.726 Y94.022 E5.91418
G1 X107.026 Y94.512 E5.93196
G1 X107.300 Y95.017 E5.94974
G1 X107.547 Y95.536 E5.96752
G1 X107.767 Y96.067 E5.98530
G1 X107.959 Y96.608 E6.00308
G1 X108.122 Y97.159 E6.02086
G1 X108.256 Y97.718 E6.03863
G1 X108.361 Y98.283 E6.05641
G1 X108.436 Y98.853 E6.07419
G1 X108.481 Y99.426 E6.09197
G1 X108.496 Y100.000 E6.10975
G1 X108.481 Y100.574 E6.12753
G1 X108.436 Y101.147 E6.14531
G1 X108.361 Y101.717 E6.16309
G1 X108.256 Y102.282 E6.18086
G1 X108.122 Y102.841 E6.19864
G1 X107.959 Y103.392 E6.21642
G1 X107.767 Y103.933 E6.23420
G1 X107.547 Y104.464 E6.25198
G1 X107.300 Y104.983 E6.26976
G1 X107.026 Y105.488 E6.28754
G1 X106.726 Y105.978 E6.30532
G1 X106.400 Y106.451 E6.32309
G1 X106.050 Y106.907 E6.34087
G1 X105.677 Y107.344 E6.35865
G1 X105.110 Y107.923 E6.38374
G1 X104.626 Y107.522 F7800.000
G1 X104.034 Y108.044 E6.40813 F1800.000
G1 X103.605 Y108.373 E6.42490
G1 X103.158 Y108.680 E6.44167
G1 X102.696 Y108.963 E6.45843
G1 X102.220 Y109.222 E6.47520
G1 X101.731 Y109.455 E6.49196
G1 X101.230 Y109.663 E6.50873
G1 X100.719 Y109.844 E6.52550
G1 X100.200 Y109.997 E6.54226
G1 X99.673 Y110.124 E6.55903
G1 X99.140 Y110.223 E6.57580
G1 X98.603 Y110.293 E6.59256
G1 X98.063 Y110.336 E6.60933
G1 X97.521 Y110.350 E6.62609
G1 X96.979 Y110.336 E6.64286
G1 X96.439 Y110.293 E6.65963
G1 X95.902 Y110.223 E6.67639
G1 X95.369 Y110.124 E6.69316
G1 X94.842 Y109.997 E6.70992
G1 X94.323 Y109.844 E6.72669
G1 X93.812 Y109.663 E6.74346
G1 X93.311 Y109.455 E6.76022
G1 X92.822 Y109.222 E6.77699
G1 X92.346 Y108.963 E6.79376
G1 X91.884 Y108.680 E6.81052
G1 X91.437 Y108.373 E6.82729
G1 X91.007 Y108.044 E6.84405
G1 X90.595 Y107.692 E6.86082
G1 X90.202 Y107.319 E6.87759
G1 X89.829 Y106.926 E6.89435
G1 X89.477 Y106.514 E6.91112
G1 X89.147 Y106.084 E6.92788
G1 X88.841 Y105.637 E6.94465
G1 X88.557 Y105.175 E6.96142
G1 X88.299 Y104.699 E6.97818
G1 X88.065 Y104.208 E6.99501
G1 X87.858 Y103.709 E7.01172
G1 X87.677 Y103.198 E7.02848
G1 X87.523 Y102.679 E7.04525
G1 X87.397 Y102.152 E7.06201
G1 X87.298 Y101.619 E7.07878
G1 X87.227 Y101.082 E7.09555
G1 X87.185 Y100.542 E7.11231
G1 X87.171 Y100.000 E7.12908
G1 X87.185 Y99.458 E7.14584
G1 X87.227 Y98.918 E7.16261
G1 X87.298 Y98.381 E7.17938
G1 X87.397 Y97.848 E7.19614
G1 X87.523 Y97.321 E7.21291
G1 X87.677 Y96.802 E7.22968
G1 X87.858 Y96.291 E7.24644
G1 X88.066 Y95.790 E7.26321
G1 X88.299 Y95.301 E7.27997
G1 X88.557 Y94.825 E7.29674
G1 X88.841 Y94.363 E7.31351
G1 X89.147 Y93.916 E7.33027
G1 X89.477 Y93.486 E7.34704
G1 X89.829 Y93.074 E7.36380
G1 X90.202 Y92.681 E7.38057
G1 X90.595 Y92.308 E7.39734
G1 X91.007 Y91.956 E7.41410
G1 X91.437 Y91.627 E7.43087
G1 X91.884 Y91.320 E7.44764
G1 X92.346 Y91.037 E7.46440
G1 X92.822 Y90.778 E7.48117
G1 X93.311 Y90.545 E7.49793
G1 X93.812 Y90.337 E7.51470
G1 X94.323 Y90.156 E7.53147
G1 X94.842 Y90.003 E7.54823
G1 X95.369 Y89.876 E7.56500
G1 X95.902 Y89.777 E7.58176
G1 X96.439 Y89.707 E7.59853
G1 X96.979 Y89.664 E7.61530
G1 X97.519 Y89.650 E7.63200 F1800.000
G1 X98.063 Y89.664 E7.64883
G1 X98.603 Y89.707 E7.66559
G1 X99.140 Y89.777 E7.68236
G1 X99.673 Y89.876 E7.69913
G1 X100.200 Y90.003 E7.71589
G1 X100.719 Y90.156 E7.73266
G1 X101.230 Y90.337 E7.74943
G1 X101.731 Y90.545 E7.76619
G1 X102.220 Y90.778 E7.78296
G1 X102.696 Y91.037 E7.79972
G1 X103.158 Y91.320 E7.81649
G1 X103.605 Y91.627 E7.83326
G1 X104.034 Y91.956 E7.85002
G1 X104.446 Y92.308 E7.86679
G1 X104.840 Y92.681 E7.88355
G1 X105.213 Y93.074 E7.90032
G1 X105.564 Y93.486 E7.91709
G1 X105.894 Y93.916 E7.93385
G1 X106.201 Y94.363 E7.95062
G1 X106.484 Y94.825 E7.96739
G1 X106.743 Y95.301 E7.98415
G1 X106.976 Y95.790 E8.00092
G1 X107.184 Y96.291 E8.01768
G1 X107.364 Y96.802 E8.03445
G1 X107.518 Y97.321 E8.05122
G1 X107.645 Y97.848 E8.06798
G1 X107.744 Y98.381 E8.08475
G1 X107.814 Y98.918 E8.10151
G1 X107.857 Y99.458 E8.11828
G1 X107.871 Y100.000 E8.13505
G1 X107.857 Y100.542 E8.15181
G1 X107.814 Y101.082 E8.16858
G1 X107.744 Y101.619 E8.18534
G1 X107.645 Y102.152 E8.20211
G1 X107.518 Y102.679 E8.21888
G1 X107.364 Y103.198 E8.23564
G1 X107.184 Y103.709 E8.25241
G1 X106.976 Y104.210 E8.26918
G1 X106.743 Y104.699 E8.28594
G1 X106.484 Y105.175 E8.30271
G1 X106.201 Y105.637 E8.31947
G1 X105.894 Y106.084 E8.33624
G1 X105.564 Y106.514 E8.35301
G1 X105.213 Y106.926 E8.36977
G1 X104.680 Y107.470 E8.39334
G1 X104.736 Y108.009 F7800.000
G1 X116.920 Y120.478 F7800.000
G1 X116.402 Y120.970 E8.41545 F1800.000
G1 X115.279 Y121.929 E8.46116
G1 X114.107 Y122.828 E8.50687
G1 X112.889 Y123.665 E8.55257
G1 X111.630 Y124.437 E8.59828
G1 X110.394 Y125.108 E8.64179
G1 X108.996 Y125.779 E8.68976
G1 X107.633 Y126.343 E8.73541
G1 X106.241 Y126.836 E8.78112
G1 X104.824 Y127.256 E8.82683
G1 X103.457 Y127.584 E8.87034
G1 X101.933 Y127.870 E8.91830
G1 X100.470 Y128.063 E8.96395
G1 X98.998 Y128.179 E9.00967
G1 X97.521 Y128.218 E9.05537
G1 X96.044 Y128.179 E9.10108
G1 X94.571 Y128.063 E9.14679
G1 X93.107 Y127.870 E9.19250
G1 X91.654 Y127.601 E9.23821
G1 X90.218 Y127.256 E9.28392
G1 X88.801 Y126.836 E9.32963
G1 X87.409 Y126.343 E9.37534
G1 X86.044 Y125.778 E9.42105
G1 X84.710 Y125.142 E9.46676
G1 X83.412 Y124.437 E9.51247
G1 X82.152 Y123.665 E9.55818
G1 X80.935 Y122.828 E9.60389
G1 X79.763 Y121.929 E9.64960
G1 X78.640 Y120.970 E9.69531
G1 X77.568 Y119.953 E9.74102
G1 X76.551 Y118.881 E9.78673
G1 X75.592 Y117.758 E9.83244
G1 X74.692 Y116.586 E9.87815
G1 X73.856 Y115.368 E9.92385
G1 X73.084 Y114.109 E9.96956
G1 X72.379 Y112.810 E10.01528
G1 X71.743 Y111.477 E10.06099
G1 X71.178 Y110.112 E10.10669
G1 X70.684 Y108.720 E10.15240
G1 X70.265 Y107.303 E10.19811
G1 X69.920 Y105.867 E10.24382
G1 X69.651 Y104.414 E10.28953
G1 X69.458 Y102.950 E10.33524
G1 X69.342 Y101.477 E10.38095
G1 X69.303 Y100.000 E10.42666
G1 X69.342 Y98.523 E10.47237
G1 X69.458 Y97.050 E10.51808
G1 X69.651 Y95.586 E10.56379
G1 X69.920 Y94.133 E10.60950
G1 X70.265 Y92.697 E10.65521
G1 X70.684 Y91.280 E10.70092
G1 X71.178 Y89.888 E10.74663
G1 X71.743 Y88.523 E10.79234
G1 X72.379 Y87.190 E10.83804
G1 X73.084 Y85.891 E10.88376
G1 X73.856 Y84.632 E10.92947
